X:1
T:University City, 10.11.10.11 D
T:University City, 10.11.10.11 D
T:Charles Edward Pollock, 1092
T:Public Domain Courtesy of the Cyber Hymnal™
C:Charles Edward Pollock, 1092
Z:Public Domain
Z:Courtesy of the Cyber Hymnal™
%%score ( 1 2 ) 3
L:1/8
Q:1/4=85
M:6/8
K:F
V:1 treble 
V:2 treble 
V:3 bass 
V:1
 [FA]>[F^G][FA] F2 F | [EG][DF][EG] [FA]2 [Fc] | [Fc]>[F=B][Fc] [Fd][Fc][FA] | %3
 [FA][FG][FG] [EG]2 [GB] | [FA]>[F^G][FA] F2 F | [EG][DF][EG] [FA]2 [Fc] | %6
 [Fc]>[F=B][Fc] [Fd][Fc][FA] | [CG][CF][CG] [CF]3 | [Fc]>[F=B][Fc] [Fd][Fc][FA] | %9
 [EG][FA][GB] [FA]3 | [Fc]>[F=B][Fc] [Fd][Fc][FA] | [EG][FA][F=B] !fermata![Ec]2 [G_B] | %12
 [FA]>[F^G][FA] F2 F | [EG][DF][EG] [FA]2 [Fc] | [Fc]>[F=B][Fc] [Fd][Fc][FA] | %15
 [CG]>[CF][CG] [CF]3 |] %16
V:2
 x3 F2 F | x6 | x6 | x6 | x3 F2 F | x6 | x6 | x6 | x6 | x6 | x6 | x6 | x3 F2 F | x6 | x6 | x6 |] %16
V:3
 [F,C]>[F,=B,][F,C] [F,A,]2 [F,A,] | [C,C][C,C][C,C] [F,C]2 [F,A,] | %2
 [F,A,]>[F,^G,][F,A,] [F,B,][F,A,][F,C] | [G,=B,][G,B,][G,B,] [C,C]2 [C,C] | %4
 [F,C]>[F,=B,][F,C] [F,A,]2 [F,A,] | [C,C][C,C][C,C] [F,C]2 [F,A,] | %6
 [F,A,]>[F,^G,][F,A,] [F,B,][F,A,][F,C] | [C,B,][C,A,][C,B,] [F,A,]3 | %8
 [F,A,]>[F,^G,][F,A,] [F,B,][F,A,][F,C] | [C,C][C,C][C,C] [F,C]3 | %10
 [F,A,]>[F,^G,][F,A,] [F,B,][F,A,][F,C] | [G,C][G,=B,][G,D] !fermata![C,C]2 [C,C] | %12
 [F,C]>[F,=B,][F,C] [F,A,]2 [F,A,] | [C,C][C,C][C,C] [F,C]2 [F,A,] | %14
 [F,A,]>[F,^G,][F,A,] [F,B,][F,A,][F,C] | [C,B,]>[C,A,][C,B,] [F,A,]3 |] %16

